!!!!SEGMENT: pl-kk--kk-i-212_anonim--mittit-ad-virginem.krn
!!!id: 16xx:769
!!!COM: Anonim
!!!COM-rism: pe30004985
!!!CDT:
!!!CNT:
!!!OTL: Mittit ad virginem
!!!PDT:
!!!SMS-siglum: PL-Kk
!!!SMS-shelfmark: Kk.I.212
!!!NIFC-rismID: 1001143690
!!!URL-scan: http://repozytorium.nifc.pl/skany/pl-kk-nut--i-212
!!!ONB-nifc:
!!!SMS-variant:
!!!SMS-altvar:
**kern	**text	**text	**kern	**text	**text	**kern	**text	**text	**kern	**text	**text	**kern	**text	**text
*part5	*part5	*part5	*part4	*part4	*part4	*part3	*part3	*part3	*part2	*part2	*part2	*part1	*part1	*part1
*staff5	*staff5	*staff5	*staff4	*staff4	*staff4	*staff3	*staff3	*staff3	*staff2	*staff2	*staff2	*staff1	*staff1	*staff1
*I"Baſso Ripieno.	*	*	*I"Basso	*	*	*I"Tenore	*	*	*I"Alto	*	*	*I"Canto	*	*
*I'Coro B	*	*	*	*	*	*	*	*	*	*	*	*	*	*
*clefF4	*	*	*clefF4	*	*	*clefC4	*	*	*clefC3	*	*	*clefC1	*	*
*k[]	*	*	*k[]	*	*	*k[]	*	*	*k[]	*	*	*k[]	*	*
*M3/1	*	*	*M3/1	*	*	*M3/1	*	*	*M3/1	*	*	*M3/1	*	*
=1	=1	=1	=1	=1	=1	=1	=1	=1	=1	=1	=1	=1	=1	=1
*rscale:1/2	*	*	*	*	*	*	*	*	*	*	*	*	*	*
*2\right	*	*	*	*	*	*	*	*	*	*	*	*	*	*
!LO:TX:t=P:problem:partia zapisana w metrum 3/2	!	!	!	!	!	!	!	!	!	!	!	!LO:TX:t=P:problem:nieprecyzyjnie podpisany tekst	!	!
1G\	Mit-	.	1G\	Mit-	For-	1B\	Mit-	For-	1d\	Mit-	For-	1d/	Mit-	For-
1E\	-tit	.	1E\	-tit	-tem	1.B\	-tit	-tem	1e\	-tit	-tem	1g\	-tit	-tem
1BB/	ad	.	1BB/	ad	ex-	.	.	.	1d\	ad	ex-	1g\	ad	ex-
.	.	.	.	.	.	2B\	ad	ex-	.	.	.	.	.	.
=2	=2	=2	=2	=2	=2	=2	=2	=2	=2	=2	=2	=2	=2	=2
1C/	Vir-	.	(>1C/	Vir-	-pe-	1G/	Vir-	-pe-	0e\	Vir-	-pe-	0a\	Vir-	-pe-
1AA/	.	.	1AA/)	.	.	(1c\	-gi-	-di-	.	.	.	.	.	.
1D\	-gi-	.	1D\	-gi-	-di-	1A\)	.	.	1d\	-gi-	-di-	1f#X/	-gi-	-di-
=3	=3	=3	=3	=3	=3	=3	=3	=3	=3	=3	=3	=3	=3	=3
0GG/,<	-nem	.	0GG/	-ne(m)	-at	0B\,<	-ne(m)	-at	0d\	-ne(m)	-at	0g\	-ne(m)	-at
1D\	non	.	(1D\	non	pro	1A\	non	pro	1d\	non	pro	1a\	non	pro
=4	=4	=4	=4	=4	=4	=4	=4	=4	=4	=4	=4	=4	=4	=4
1BB/	.	.	1BB/)	.	.	0B\	que(m)-	no-	1d\	quem-	no-	0b\	que(m)-	no-
1E\	quem-	.	1E\	que(m)-	no-	.	.	.	0e\	-vis	-bis	.	.	.
1AA/	-vis	.	1AA/	.	-bis	1A\	-vis	-bis	.	.	.	1cc\	-vis	-bis
=5	=5	=5	=5	=5	=5	=5	=5	=5	=5	=5	=5	=5	=5	=5
1BB/	.	.	1BB/	-vis	nun-	0G/	an-	nun-	0d\	an-	nun-	1b\	an-	nun-
1.D\	an-	.	1.D\	an-	-ti-	.	.	.	.	.	.	1.a\	-ge-	-ti-
.	.	.	.	.	.	1F/	-ge-	-ti-	1d\	-ge-	-ti-	.	.	.
2D\	-ge-	.	2D/	-ge-	.	.	.	.	.	.	.	2a\	-lu(m)	-u(m)
=6	=6	=6	=6-	=6	=6	=6	=6	=6	=6	=6	=6	=6	=6	=6
0GG/,<	-lum	.	0GG/	-l(um)	-u(m)	0G/	lu(m)	u(m)	0d\	lu(m)	u(m)	0g\	ſed	na-
1G\	ſed	.	1G\	ſed	na-	1G/	ſed	na-	1d\	ſed	na-	1b\	for-	-tu-
=7	=7	=7	=7	=7	=7	=7	=7	=7	=7	=7	=7	=7	=7	=7
2D\	for-	.	2D\	for-	-tu-	0A\	for-	-tu-	0f\	for-	-tu-	0dd\	-ti-	-rae
2E\	.	.	2E\	.	.	.	.	.	.	.	.	.	.	.
2Fn\	.	.	2F\	.	.	.	.	.	.	.	.	.	.	.
2G\	.	.	2G\	.	.	.	.	.	.	.	.	.	.	.
1A\	-ti-	.	1A\	-ti-	-rae	1A\	-ti-	-rae	0e\	-ti-	-rae	1cc\	-tu-	fa-
=8	=8	=8	=8	=8	=8	=8	=8	=8	=8-	=8	=8	=8	=8	=8
1E\	-tu-	.	1E\	-tu-	-fa-	1.G/	-tu-	fa-	.	.	.	1.b\	-di-	-ci-
1G\	-di-	.	1G\	-di-	-ci-	.	.	.	1.d\	-tu-	fa-	.	.	.
.	.	.	.	.	.	2G/	-di-	-ci-	.	.	.	2b\	-ne(m)	-at
1D\	-ne(m)	.	1D\	-ne(m)	-at	1A\	-ne(m)	-at	.	.	.	1a\	ſu-	ut
.	.	.	.	.	.	.	.	.	2d\	-di	-ci	.	.	.
=9-	=9	=9	=9-	=9	=9	=9-	=9	=9	=9	=9	=9	=9	=9	=9
!	!	!	!	!	!	!	!	!	!LO:TX:t=P:problem:takt skreślony?	!	!	!	!	!
0.D\	ſu-	.	0.D\	ſu-	ut	0.A\	ſu-	ut	0dyy\	.	.	1a\	-a(m)	prae-
!	!	!	!	!	!	!	!	!	!	!	!	!LO:TX:t=P:problem:# above	!	!
.	.	.	.	.	.	.	.	.	.	.	.	1f#X/	.	.
.	.	.	.	.	.	.	.	.	1dyy\	.	.	1a\	ar-	-ju-
!LO:LB:g=original	!	!	!	!	!	!	!	!	!	!	!	!	!	!
=10	=10	=10	=10	=10	=10	=10	=10	=10	=10	=10	=10	=10	=10	=10
0.GG/	um	.	0.GG/	a(m)	prae-	1.G/	a(m)	prae-	0d\	a(m)	prae-	2b\	-chan-	-di-
.	.	.	.	.	.	.	.	.	.	.	.	2a\	.	.
.	.	.	.	.	.	.	.	.	.	.	.	2g/	.	.
.	.	.	.	.	.	2A/	.	.	.	.	.	2f/	.	.
.	.	.	.	.	.	1B\	.	.	1d\	ar-	-ju-	1g\	.	.
=11	=11	=11	=11-	=11	=11	=11-	=11	=11	=11	=11	=11	=11-	=11	=11
!	!	!	!	!	!	!	!	!	!	!	!	!LO:TX:t=P:problem:# above	!	!
1D/	ar-	.	1D\	ar-	-ju-	1A\	ar-	-ju-	0d\	-chan-	-di-	1f#/	.	.
0AA/	-chan-	.	0AA/	-chan-	-di-	1.A\	-chan-	-di-	.	.	.	1.e/	.	.
!	!	!	!	!	!	!	!	!	!LO:TX:t=P:problem:# above	!	!	!	!	!
.	.	.	.	.	.	.	.	.	1c#X\	-ge-	-ci-	.	.	.
.	.	.	.	.	.	2A/	-ge-	-ci-	.	.	.	2e/	-ge-	-ci-
!	!	!	!	!	!	!	!	!	!	!	!	!LO:LB:g=original	!	!
=12-	=12	=12	=12-	=12	=12	=12	=12	=12	=12	=12	=12	=12	=12	=12
0D\	-ge-	.	0D\	-ge-	-ci-	0A\	-lu(m)	-um	0d\	-lu(m)	-um	0d/	-lu(m)	-um
1D\	.	.	1D\	.	.	1A\	a-	in	1d\	a-	in	1a\	a-	in
!	!	!	!LO:LB:g=original	!	!	!LO:LB:g=original	!	!	!	!	!	!	!	!
=13-	=13	=13	=13	=13	=13	=13	=13	=13	=13	=13	=13	=13	=13	=13
0BB/,<	-lum	.	0BB/	-lu(m)	-um	0B\	-ma-	par-	0d\	-ma-	par-	0a\	-ma-	par-
!	!	!	!	!	!	!	!	!	!	!	!	!LO:TX:t=P:problem:# above	!	!
1E\	a-	.	1E\	a-	in	1A\	-tor	-tu	1e\	-tor	-tu	1g#X\	-tor	-tu
=14	=14	=14	=14	=14	=14	=14	=14	=14	=14	=14	=14	=14	=14	=14
1C/	-ma-	.	(>1C/	-ma-	par-	1.A\	-ho-	vir-	1.e\	-ho-	vir-	1.cc\	ho-	vir-
1AA/,<	.	.	1AA/)	.	.	.	.	.	.	.	.	.	.	.
.	.	.	.	.	.	2A/	-mi-	-gi-	2e\	-mi-	-gi-	2cc\	-mi-	-gi-
1E\	-tor	.	1E\	-tor	-tu	1G#X/	-nis	-nis	1e\	-nis	-nis	1b\	-nis	-nis
!	!	!	!	!	!	!	!	!	!LO:LB:g=original	!	!	!	!	!
=15	=15	=15	=15	=15	=15	=15	=15	=15	=15	=15	=15	=15	=15	=15
*	*iji	*	*	*ij	*ij	*	*	*	*	*	*	*	*ij	*ij
1BB/	a-	.	1BB/	a-	in	1B\	a-	in	1d\	a-	in	1dd\	a-	in
1C/	-ma-	.	1C/	-ma-	par-	1A\	-ma-	par-	1e\	-ma-	par-	0cc\	-ma-	par-
!	!	!	!	!	!	!	!	!	!LO:TX:t=P:problem:# above	!	!	!	!	!
1D\	.	.	1E\	-tor	-tu	1A\	-tor	-tu	1f#\	-tor	-tu	.	.	.
=16	=16	=16	=16	=16	=16	=16	=16	=16	=16	=16	=16	=16	=16	=16
*	*	*	*	*ij	*ij	*	*ij	*ij	*	*ij	*ij	*	*	*
1E\	.	.	1E\	a-	in	1G/	a-	in	1g\	a-	in	0.b\	-tor	-tu
!	!	!	!	!	!	!	!	!	!LO:TX:t=P:problem:# above	!	!	!	!	!
1D\	.	.	1D\	-ma-	par-	1A\	-ma-	par-	1f#\	-ma-	par-	.	.	.
1E\	.	.	1E\	-tor	-tu	0G/	-tor	-tu	1g\	-tor	-tu	.	.	.
*	*	*	*	*Xij	*Xij	*	*Xij	*Xij	*	*Xij	*Xij	*	*	*
=17	=17	=17	=17	=17	=17	=17-	=17	=17	=17	=17	=17	=17	=17	=17
1BB/	-tor	.	1BB/	ho-	vir-	.	.	.	0g\	ho-	vir-	1b\	ho-	vir-
*	*Xij	*	*	*	*	*	*	*	*	*	*	*	*	*
1.D\	ho-	.	1.D\	-mi-	-gi-	1.A\	ho-	vir-	.	.	.	1.a\	.	.
!	!	!	!	!	!	!	!	!	!LO:TX:t=P:problem:# above	!	!	!	!	!
.	.	.	.	.	.	.	.	.	1f#\	-mi-	-gi-	.	.	.
2D\	-mi-	.	2D\	.	.	2A/	-mi-	-gi-	.	.	.	2a\	-mi-	-gi-
=18-	=18	=18	=18	=18	=18	=18-	=18	=18	=18-	=18	=18	=18-	=18	=18
0.GG/	-nis.	.	0.GG/;;	-nis	-nis	0.B\	-nis	-nis	0.g\;;	-nis	-nis	0.g\;;	-nis	-nis
*	*	*	*	*	*	*	*	*	*	*	*	*	*Xij	*Xij
!LO:LB:g=original	!	!	!	!	!	!	!	!	!	!	!	!	!	!
=19||	=19||	=19||	=19||	=19||	=19||	=19||	=19||	=19||	=19||	=19||	=19||	=19||	=19||	=19||
*M3/2	*	*	*	*	*	*	*	*	*	*	*	*	*	*
1G\	2.Na-	.	1G\	Na-	Su-	1d\	Na-	Su-	1g\	Na-	Su-	1b\	Na-	Su-
1E\	-tu-	.	1E\	-tu-	-per-	1e\	-tu-	-per-	1g\	-tu-	-per-	1cc\	-tu-	-per-
1BB/	-ram	.	1BB/	-ra	-bi-	1d\	-ra(m)	-bi-	1g\	-ra(m)	-bi-	1dd\	-ra(m)	-bi-
=20	=20	=20	=20	=20	=20	=20	=20	=20	=20	=20	=20	=20	=20	=20
*^	*	*	*	*	*	*	*	*	*	*	*	*	*	*
1C/	1B\	ſu-	.	1C/	ſu-	-en-	(1e\	ſu-	-en-	2e\	ſu-	-en-	0a\	ſu-	-en-
.	.	.	.	.	.	.	.	.	.	2f\	.	.	.	.	.
1.D/	0ryy	.	.	1.D\	.	.	1.d\)	.	.	2g\	.	.	.	.	.
.	.	.	.	.	.	.	.	.	.	4a\	.	.	.	.	.
.	.	.	.	.	.	.	.	.	.	4g\	.	.	.	.	.
!	!	!	!	!	!	!	!	!	!	!LO:TX:t=P:problem:# above	!	!	!	!	!
.	.	.	.	.	.	.	.	.	.	2f#X\	.	.	1a\	-pe-	-ti-
2D\	.	-pe-	.	2D/	-pe-	-ti-	2c\	-pe-	-ti-	2f#\	-pe-	-ti-	.	.	.
*v	*v	*	*	*	*	*	*	*	*	*	*	*	*	*	*
=21-	=21	=21	=21-	=21	=21	=21-	=21	=21	=21	=21	=21	=21-	=21	=21
0GG/	-rat	.	0GG/	-ret,	-u(m)	0B\,<	-ret,	-u(m)	0g\	-ret	-um	0b\	-ret	-um
!	!	!	!	!	!	!	!	!	!LO:TX:t=P:problem:# above	!	!	!	!	!
1D\	na-	.	1D\	na-	te-	1d\	na-	te-	1f#X\	na-	te-	1a\	na-	te-
=22	=22	=22	=22	=22	=22	=22	=22	=22	=22	=22	=22	=22	=22	=22
2AA/	.	.	2AA/	.	.	2c\	-t(us)	-rat	0a\	-t(us)	-rat	0cc\	-t(us)	-rat
2BB/	.	.	2BB/	.	.	2d\	.	.	.	.	.	.	.	.
2C/	.	.	2C/	.	.	1e\	Rex	faſ-	.	.	.	.	.	.
2D/	.	.	2D/	.	.	.	.	.	.	.	.	.	.	.
!	!	!	!	!	!	!	!	!	!LO:TX:t=P:problem:# above	!	!	!	!	!
1E\	-tus	.	1E\	-t(us)	-rat	1e\	.	.	1g#X\	Rex	fas-	1b\	Rex	fas-
=23	=23	=23	=23	=23	=23	=23-	=23	=23	=23	=23	=23	=23-	=23	=23
1C/	Rex	.	1C/	Rex	faſ-	0e\	glo-	-ti-	0a\	glo-	-ti-	1cc\	glo-	-ti-
1.E\	glo-	.	1.E\	glo-	-ti-	.	.	.	.	.	.	1.b\	-ri-	-gi-
!	!	!	!	!	!	!LO:TX:a:t=P:problem: custos c	!	!	!LO:TX:t=P:problem:# above	!	!	!	!	!
.	.	.	.	.	.	1B\	-ri-	-gi-	1g#X\	-ri-	-gi-	.	.	.
2E\	-ri-	.	2E\	-ri-	-gi-	.	.	.	.	.	.	2b\	-a-	.
!	!	!	!LO:LB:g=original	!	!	!LO:LB:g=original	!	!	!	!	!	!	!	!
=24	=24	=24	=24-	=24	=24	=24	=24	=24	=24	=24	=24	=24-	=24	=24
0AA/,<	-ae	.	0AA/	-ae	-a	0c\	-ae	-a	0a\	-ae	-a	0a\	-e	-a
!	!	!	!	!	!	!	!	!	!	!	!	!LO:TX:t=P:problem:# above	!	!
1A\	re-	.	1A\	re-	col-	1e\	Re-	col-	1a\	Re-	col-	1cc#X\	Re-	col-
!	!	!	!	!	!	!	!	!	!	!	!	!LO:LB:g=original	!	!
=25	=25	=25	=25	=25	=25	=25	=25	=25	=25	=25	=25	=25	=25	=25
0F\	-gnat	.	0F\	-gnet	-la	0e\	-gnet	-la	0a\	-gnet	-la	0dd\	-gnet	-la
1D\	et	.	1D\	et	ſub-	2A/	.	.	1f\	et	ſub-	1dd\	et	ſub-
.	.	.	.	.	.	2B/	et	ſub-	.	.	.	.	.	.
=26	=26	=26	=26	=26	=26	=26	=26	=26	=26	=26	=26	=26-	=26	=26
1.A\	im-	.	1.A\	im-	-li-	1.c#X\	im-	-li-	1.e\	im-	-li-	1.cc#X\	im-	-li-
2A\	-pe-	.	2A\	-pe-	-mi-	2c#\	-pe-	-mi-	2e\	-pe-	-mi-	2cc#\	-pe-	-mi-
1A\	-rat	.	1A\	-ret	-um	1c#\	-ret	-um	1e\	-ret	-um	1cc#\	-ret	-um
!LO:LB:g=original	!	!	!	!	!	!	!	!	!LO:LB:g=original	!	!	!	!	!
=27	=27	=27	=27	=27	=27	=27	=27	=27	=27	=27	=27	=27	=27	=27
*	*	*	*	*ij	*ij	*	*ij	*ij	*	*	*	*	*ij	*ij
1F\	re-	.	1F\	re-	col-	1c-\	re-	col-	1f\	re-	col-	1a\	Re-	col-
1D\	-gnat	.	1D\	-gnet	-la	1d\	-gnet	-la	1f\	-gnet	-la	1b\	-gnet	-la
1C/	et	.	1C/	et	ſub-	1e\	et	ſub-	1g\	et	ſub-	1cc\	et	ſub-
=28	=28	=28	=28	=28	=28	=28	=28	=28	=28	=28	=28	=28	=28	=28
1.G\	im-	.	1.G\	im-	-li-	1.d\	im-	-li-	1.g\	im-	-li-	1.b\	im-	-li-
2G\	-pe-	.	2G\	-pe-	-mi-	2d\	-pe-	-mi-	2g\	-pe-	-mi-	2b\	-pe-	-mi-
1G\	-rat	.	1G\	-ret	-u(m)	1d\	-ret	-u(m)	1g\	-ret	-u(m)	1b\	-ret	-um
*	*	*	*	*Xij	*Xij	*	*Xij	*Xij	*	*	*	*	*Xij	*Xij
=29	=29	=29	=29	=29	=29	=29	=29	=29	=29	=29	=29	=29	=29	=29
(1.G\	et	.	(1.G\	et	cal-	1.d\	et	cal-	1.g\	et	cal-	1b\	et	cal-
.	.	.	.	.	.	.	.	.	.	.	.	1b\	Zy-	-cet
2F\)	.	.	2F\)	.	.	2d\	Zy-	-cet	2d\	Zy-	-cet	.	.	.
!	!	!	!	!	!	!	!	!	!	!	!	!LO:TX:t=P:problem:# above	!	!
1E\	Zy-	.	1E\	Zy-	-cet	1e\	-ma	vi	1g\	-ma	vi	1cc#X\	-ma	vi
=30-	=30	=30	=30	=30	=30	=30	=30	=30	=30	=30	=30	=30-	=30	=30
1D/	-ma	.	1D\	-ma	vi	0A\	ſco-	pro-	1f\	ſco-	pro-	0dd\	ſco-	pro-
1A\	sco-	.	1.AA/	ſco-	pro-	.	.	.	1.e\	-ri-	-pri-	.	.	.
!	!	!	!	!	!	!	!	!	!	!	!	!LO:TX:t=P:problem:# above	!	!
1AA/	.	.	.	.	.	1A\	-ri-	-pri-	.	.	.	1cc#X\	-ri-	-pri-
.	-ri-	.	2AA/	-ri-	-pri-	.	.	.	2e\	-ae	-a	.	.	.
=31-	=31	=31	=31	=31	=31	=31-	=31	=31	=31-	=31	=31	=31	=31	=31
!	!	!	!	!	!	!	!	!	!LO:TX:t=P:problem:# above	!	!	!	!	!
0D\,<	-ae	.	0D\	-ae	-a	0A\	-ae	-a	0f#X\	tol-	po-	0dd\	-ae	-a
1D\	tol-	.	1D\	tol-	po-	1d\	tol-	po-	1fn\	.	.	1a\	tol-	po-
=32	=32	=32	=32	=32	=32	=32	=32	=32	=32	=32	=32	=32	=32	=32
1.AA/	.	.	1.AA/	.	.	1.c\	-lat	-tens	2c\	.	.	1.cc\	-lat	.
.	.	.	.	.	.	.	.	.	2d\	.	.	.	.	.
.	.	.	.	.	.	.	.	.	1.e\	.	.	.	.	.
2BB/	.	.	2BB/	.	.	2d\	.	.	.	.	.	4b\	.	.
.	.	.	.	.	.	.	.	.	.	.	.	4a\	.	.
1C/	.	.	1C/	.	.	2e\	.	.	.	.	.	2g\	.	.
.	.	.	.	.	.	4d\	.	.	2f\	.	.	2a\	.	.
.	.	.	.	.	.	4c\	.	.	.	.	.	.	.	.
=33-	=33	=33	=33	=33	=33	=33	=33	=33	=33	=33	=33	=33	=33	=33
0GG/,<	-lat	.	0GG/	-lat	-tens	1.B\	-tol-	-po-	1.g\	-lat	-tens	0b\	.	-tens
.	.	.	.	.	.	2c\	.	.	4f\	.	.	.	.	.
.	.	.	.	.	.	.	.	.	4e\	.	.	.	.	.
1G\	-tol-	.	1G\	-tol-	-po-	1.d\	-lat	.	2d\	.	.	1b\	tol-	po-
.	.	.	.	.	.	.	.	.	2e\	.	.	.	.	.
=34	=34	=34	=34	=34	=34	=34-	=34	=34	=34	=34	=34	=34-	=34	=34
1.D\	.	.	1.D\	.	.	.	.	.	1.f\	tol-	po-	1.dd\	-lat	.
.	.	.	.	.	.	4c\	.	.	.	.	.	.	.	.
.	.	.	.	.	.	4B\	.	.	.	.	.	.	.	.
.	.	.	.	.	.	[1A\	.	-tens	.	.	.	.	.	.
2E\	.	.	2E\	.	.	.	.	.	2g\	.	.	4cc\	.	.
.	.	.	.	.	.	.	.	.	.	.	.	4b\	.	.
2F\	.	.	2F\	.	.	1A\]	.	.	2a\	.	.	2a\	.	.
2G\	.	.	2G\	.	.	.	.	.	4g\	.	.	2b\	.	.
.	.	.	.	.	.	.	.	.	4f\	.	.	.	.	.
!	!	!	!	!	!	!LO:LB:g=original	!	!	!	!	!	!	!	!
=35-	=35	=35	=35	=35	=35	=35	=35	=35	=35	=35	=35	=35	=35	=35
*	*	*	*	*	*	*	*	*ij	*	*	*	*	*	*
0A\,<	-lat	.	0A\	-lat	-tens	1A\	tol-	po-	2e\	-lat	-tens	2cc\	.	-tens
.	.	.	.	.	.	.	.	.	2d\	.	.	2b\	.	.
.	.	.	.	.	.	1c\	-lat	-tens	2e\	.	.	2cc\	.	.
*	*	*	*	*	*	*	*	*Xij	*	*	*	*	*	*
.	.	.	.	.	.	.	.	.	2f\	.	.	2dd\	.	.
*	*	*	*	*ij	*ij	*	*	*	*	*	*	*	*	*
1E\	de	.	1E\	tol-	po-	1B\	de	in	2g\	de	in	1ee\	de	in
.	.	.	.	.	.	.	.	.	2g\	.	.	.	.	.
!LO:LB:g=original	!	!	!	!	!	!	!	!	!	!	!	!	!	!
=36	=36	=36	=36	=36	=36	=36	=36	=36	=36	=36	=36	=36	=36	=36
1F\	me-	.	1F\	-lat	-tens	1A\	me-	prae-	0f\	me-	prae-	0dd\	me-	prae-
*	*	*	*	*Xij	*Xij	*	*	*	*	*	*	*	*	*
1D\	.	.	1D\	de	in	1.B\	-di-	-li-	.	.	.	.	.	.
2G\	-di-	.	2G\	me-	prae-	.	.	.	1d\	-di-	-li-	1dd\	-di-	-li-
2G\	-o	.	2G\	-di	-li-	2B\	-o	-o	.	.	.	.	.	.
!	!	!	!LO:LB:g=original	!	!	!	!	!	!	!	!	!	!	!
=37	=37	=37	=37	=37	=37	=37-	=37	=37	=37	=37	=37	=37-	=37	=37
0C/,<	-o	.	0C/	-o	-o	0c\	.	.	0e\	-o	-o	0cc\	-o	-o
1BB/	tol-	.	1BB/	tol-	po-	1G/	tol-	po-	1g\	tol-	po-	1dd\	tol-	po-
!	!	!	!	!	!	!	!	!	!LO:LB:g=original	!	!	!LO:LB:g=original	!	!
=38	=38	=38	=38	=38	=38	=38	=38	=38	=38	=38	=38	=38	=38	=38
1.C/	-lat	.	1.C/	-lat	-tens	1.G/	-lat	-tens	0e\	-lat	-tens	0.cc\	-lat	-tens
2BB/	.	.	2BB/	.	.	4A/	.	.	.	.	.	.	.	.
.	.	.	.	.	.	4B/	.	.	.	.	.	.	.	.
!	!	!	!	!	!	!	!	!	!LO:TX:t=P:problem:# above	!	!	!	!	!
1AA/	.	.	1AA/	.	.	1c\	.	.	1f#X\	de	in	.	.	.
=39	=39	=39	=39	=39	=39	=39	=39	=39	=39	=39	=39	=39-	=39	=39
1BB/	de	.	1BB/	de	in	1d\	de	in	0g\	me-	prae-	1b\	de	in
1.D\	me-	.	1.D\	me-	prae-	1.d\	me-	prae-	.	.	.	1.a\	me-	prae-
!	!	!	!	!	!	!	!	!	!LO:TX:t=P:problem:# above	!	!	!	!	!
.	.	.	.	.	.	.	.	.	1f#\	-di-	-li-	.	.	.
2D\	-di-	.	2D/	-di-	-li-	2c\	-di-	-li-	.	.	.	2a\	-di-	-li-
=40-	=40	=40	=40	=40	=40	=40-	=40	=40	=40	=40	=40	=40-	=40	=40
0.GG/	-o.	.	0.GG/;;	-o	-o	0.B\;	-o	-o	0.g\;<	-o	-o	0.b\;	-o	-o
=41||	=41||	=41||	=41||	=41||	=41||	=41||	=41||	=41||	=41||	=41||	=41||	=41||	=41||	=41||
*M3/2	*	*	*	*	*	*	*	*	*	*	*	*	*	*
1G\	3.Fo-	.	1G\	Fo-	E-	1e\	Fo-	E-	1g\	Fo-	E-	1b\	Fo-	E-
1E\	-ras	.	1E\	-ras	-xi	1e\	-ras	-xi	1g\	-ras	-xi	1cc\	-ras	-xi
1C/	e-	.	1C/	e-	qui	1e\	e-	qui	1e\	e-	qui	1cc\	e-	qui
=42	=42	=42	=42	=42	=42	=42	=42	=42	=42	=42	=42	=42	=42	=42
1.G\	-ij-	.	1.G\	-y-	mi-	1.d\	-ij-	mi-	1.g\	-ji-	mi-	1.b\	-ji-	mi-
2G\	-ci-	.	2G\	-ci-	-te-	2d\	-ci-	-te-	2g\	-ci-	-te-	2b\	-ci-	-te-
1G\,<	-at	.	1G\	-at	-ris	1d\	-at	-ris	1g\	-at	-ris	1b\	-at	-ris
=43	=43	=43	=43	=43	=43	=43	=43	=43	=43	=43	=43	=43	=43	=43
*	*ij	*	*	*ij	*ij	*	*ij	*ij	*	*	*ij	*	*ij	*ij
1C/	fo-	.	1C/	fo-	e-	1e\	fo-	e-	1g\	mun-	e-	1cc\	fo-	e-
1C/	-ras	.	1C/	-ras	-xi	1e\	-ras	-xi	1.g\	-da-	-xi	1cc\	-ras	-xi
1G\	e-	.	1G\	e-	qui	1d\	e-	qui	.	.	.	1b\	e-	qui
.	.	.	.	.	.	.	.	.	2f\	-num-	qui	.	.	.
=44	=44	=44	=44	=44	=44	=44	=44	=44	=44	=44	=44	=44	=44	=44
1.C/	-ij-	.	1.C/	-ji-	mi-	1.e\	-ji-	mi-	1.e\	-prin-	mi-	1.cc\	-ji-	mi-
2C/	-ci-	.	2C/	-ci-	-te-	2e\	-ci-	-te-	2e\	-ci-	-te-	2cc\	-ci-	-te-
!	!	!	!	!	!	!LO:TX:a:t=P:problem:custos c	!	!	!	!	!	!	!	!
1C/	-at	.	1C/	-at	-ris	1e\	-at	-ris	1e\	-pe(m)	-ris	1cc\	-at	-ris
*	*Xij	*	*	*Xij	*Xij	*	*Xij	*Xij	*	*	*Xij	*	*Xij	*Xij
!LO:LB:g=original	!	!	!	!	!	!LO:LB:g=original	!	!	!	!	!	!	!	!
=45	=45	=45	=45	=45	=45	=45	=45	=45	=45	=45	=45	=45	=45	=45
1.C/	mun-	.	1.C/	mun-	haec	2c\	mun-	haec	1.e\	mun-	haec	2cc\	mun-	haec
.	.	.	.	.	.	2d\	.	.	.	.	.	2g/	.	.
.	.	.	.	.	.	2e\	.	.	.	.	.	2cc\	.	.
2D/	.	.	2D/	.	.	2d\	.	.	2f\	.	.	4b\	.	.
.	.	.	.	.	.	.	.	.	.	.	.	4a\	.	.
2E/	.	.	2E\	.	.	2c\	.	.	2g\	.	.	2g\	.	.
2F/	.	.	2F\	.	.	4d\	.	.	4f\	.	.	2a\	.	.
.	.	.	.	.	.	4c\	.	.	4e\	.	.	.	.	.
=46	=46	=46	=46	=46	=46	=46	=46	=46	=46	=46	=46	=46	=46	=46
0G\	-da-	.	0G\	-da-	do-	2B/	-da-	do-	2d\	-da-	do-	0b\	-da-	do-
.	.	.	.	.	.	2A/	.	.	2c/	.	.	.	.	.
.	.	.	.	.	.	2G/	.	.	2B/	.	.	.	.	.
.	.	.	.	.	.	2A/	.	.	2c/	.	.	.	.	.
1G\	-nu(m)	.	1G\	-nu(m)	-na	2B\	.	.	2d\	-n(um)	na	1b\	-nu(m)	-na
.	.	.	.	.	.	2c\	.	.	2e\	.	.	.	.	.
=47	=47	=47	=47-	=47	=47	=47	=47	=47	=47	=47	=47	=47	=47	=47
*	*ij	*	*	*ij	*ij	*	*	*	*	*	*	*	*ij	*ij
1.D\	mun-	.	1.D\	mun-	haec	2d\	.	.	1.f\	mun-	haec	2dd\	mun-	haec
.	.	.	.	.	.	2e\	.	.	.	.	.	2a\	.	do-
.	.	.	.	.	.	2f\	.	.	.	.	.	2dd\	.	.
2E\	.	.	2E\	.	.	2e\	.	.	2g\	.	.	4cc\	.	.
.	.	.	.	.	.	.	.	.	.	.	.	4b\	.	.
2F\	.	.	2F\	.	.	2d\	-nu(m)	-na	2a\	.	.	2a\	.	.
*	*	*	*	*	*	*	*ij	*	*	*	*	*	*	*
2G\	.	.	2G\	.	.	4e\	mun-	haec	4g\	-da-	.	2b\	.	.
.	.	.	.	.	.	4d\	.	.	4f\	.	.	.	.	.
!	!	!	!LO:LB:g=original	!	!	!	!	!	!	!	!	!	!	!
=48	=48	=48	=48	=48	=48	=48	=48	=48	=48	=48	=48	=48	=48	=48
0A\	-da-	.	0A\	-da-	do-	1c#X\	-da-	do-	0e\	.	do-	1cc\	-da-	.
.	.	.	.	.	.	1c#\	.	.	.	.	.	0a\	-nu(m)	-na
!	!	!	!	!	!	!	!	!	!LO:TX:a:t=P:problem:custos e	!	!	!	!	!
1D\,<	-num	.	1D\	-num	-na	1d\	-num	-na	1f\	-n(um)	-na	.	.	.
*	*Xij	*	*	*Xij	*Xij	*	*Xij	*	*	*	*	*	*Xij	*Xij
!	!	!	!	!	!	!	!	!	!LO:LB:g=original	!	!	!	!	!
=49-	=49	=49	=49	=49	=49	=49	=49	=49	=49	=49	=49	=49-	=49	=49
0A\	Prin-	.	0A\	prin-	diſ-	0d\	prin-	diſ-	0e\	prin-	diſ-	0a\	prin-	diſ-
!	!	!	!	!	!	!LO:TX:t=P:problem:# above	!	!	!	!	!	!	!	!
1AA/	-ci-	.	1A\	-ci-	-te-	1c#X\	-ci-	-te-	1e\	-ci-	-te-	1a\	-ci-	-te-
!	!	!	!	!	!	!	!	!	!	!	!	!LO:LB:g=original	!	!
=50	=50	=50	=50-	=50	=50	=50-	=50	=50	=50-	=50	=50	=50	=50	=50
0.D\	-pem	.	0.D\	-pem	-re	0.d\	-pem	-re	0.d\	-pem	-re	0.a\	-pem	-re
=51	=51	=51	=51	=51	=51	=51-	=51	=51	=51	=51	=51	=51	=51	=51
!	!	!	!	!	!	!LO:TX:t=P:problem:# above	!	!	!LO:TX:a:t=6.	!	!	!	!	!
1D\	ma-	.	1D\	ma-	re-	1F#X/	ma-	re-	00.r	.	.	1a\	ma-	re-
!	!	!	!	!	!	!LO:TX:t=P:problem:# above	!	!	!	!	!	!	!	!
1BB/	-trem	.	1BB/	-tre(m)	-ve-	1G#X/	-trem	-ve-	.	.	.	1b\	-tre(m)	-ve-
1AA/	q(ue)	.	1AA/	q(ue)	-la	1A\	q(ue)	-la	.	.	.	1cc\	q(ue)	-la
=52-	=52	=52	=52-	=52	=52	=52-	=52	=52	=52	=52	=52	=52-	=52	=52
!	!	!	!	!	!	!LO:TX:t=P:problem:# above	!	!	!	!	!	!	!	!
1.E\	fa-	.	1.E\	fa-	ve-	1.G#X/	fa-	ve-	.	.	.	1.b\	fa-	ve-
2E\	-ci-	.	2E\	-ci-	-te-	2G#/	-ci-	-te-	.	.	.	2b\	-ci-	-te-
1E\	-at	.	1E\	-at	-ris	1G#/	-at	-ris	.	.	.	1b\	-at	-ris
=53	=53	=53	=53	=53	=53	=53	=53	=53	=53	=53	=53	=53	=53	=53
1E\	ſe-	.	1E\	ſe-	ve-	1r	.	.	00.r	.	.	1.b\	ſe-	ve-
!	!	!	!	!	!	!LO:TX:t=P:problem:# above	!	!	!	!	!	!	!	!
(1.E\	-cum	.	(<1.E\	-cu(m)	-la-	1.G#/	ſe-	ve-	.	.	.	.	.	.
.	.	.	.	.	.	.	.	.	.	.	.	2g/	.	.
.	.	.	.	.	.	.	.	.	.	.	.	1.cc\	.	.
2C/)	.	.	2C/)	.	.	2E/	-cu(m)	-la-	.	.	.	.	.	.
!	!	!	!	!	!	!LO:LB:g=original	!	!	!	!	!	!	!	!
=54	=54	=54	=54-	=54	=54	=54	=54	=54	=54	=54	=54	=54-	=54	=54
(1.F\	ſe-	.	(1.F\	ſe-	-men	1.A\	ſe-	-men	.	.	.	.	.	.
.	.	.	.	.	.	.	.	.	.	.	.	2b\	.	.
.	.	.	.	.	.	.	.	.	.	.	.	2a\	.	.
2E\)	.	.	2E\)	.	ve-	2G/	.	.	.	.	.	4b\	.	.
.	.	.	.	.	.	.	.	.	.	.	.	4cc\	.	.
!	!	!	!	!	!	!LO:TX:t=P:problem:# above	!	!	!	!	!	!LO:SIC:o:v=wykreślona kauda	!	!
1D\	-cum	.	1D\	-cu(m)	-la-	2F#X/	.	.	.	.	.	1dd\	-cu(m)	-la-
.	.	.	.	.	.	2G/	-cu(m)	.	.	.	.	.	.	.
=55-	=55	=55	=55	=55	=55	=55	=55	=55	=55	=55	=55	=55	=55	=55
1C/	pa-	.	1C/	pa-	-men	1A\	pa-	.	00.r	.	.	1ee\	pa-	-men
1.E\	-rti-	.	1.E\	-rti-	lit-	1.A\	-rti-	lit-	.	.	.	1.b\	-rti-	lit-
2E\	-(ci)-	.	2E\	-(ci)-	-te-	2G#X/	-(ci)-	-te-	.	.	.	2b\	-(ci)-	-te-
=56-	=56	=56	=56-	=56	=56	=56-	=56	=56	=56	=56	=56	=56-	=56	=56
0.AA/	-pem	.	0.AA/	-pem	-rae	0.A\	-pem	-rae	.	.	.	0.a\	-pem	-rae
!LO:LB:g=original	!	!	!	!	!	!	!	!	!	!	!	!	!	!
=57	=57	=57	=57	=57	=57	=57	=57	=57	=57	=57	=57	=57	=57	=57
1F\	Ma-	.	1F\	Ma-	re-	1c\	Ma-	re-	1f\	Ma-	re-	1a\	Ma-	re-
1D\	-trem	.	1D\	-tre(m)	-ve-	1d\	-tre(m)	-ve-	1f\	-tre(m)	-ve-	1b\	-tre(m)	-ve-
1C/	(que)	.	1C/	que	-la	1e\	que	-la	1g\	que	-la	1cc\	que	-la
=58-	=58	=58	=58-	=58	=58	=58	=58	=58	=58	=58	=58	=58	=58	=58
1.G\	fa-	.	1.G\	fa-	ve-	1.d\	fa-	ve-	1.g\	fa-	ve-	1.b\	fa-	ve-
2G\	-ci-	.	2G\	-ci-	-te-	2d\	-ci-	-te-	2g\	-ci-	-te-	2b\	-ci-	-te-
1G\	-at	.	1G\	-at	-ris	1d\	-at	-ris	1g\	-at	-ris	1b\	-at	-ris
=59	=59	=59	=59	=59	=59	=59	=59	=59	=59	=59	=59	=59	=59	=59
1r	.	.	1r	.	.	(2d\	ſe-	ve-	1r	.	.	1.dd\	ſe-	ve-
.	.	.	.	.	.	2B\)	.	.	.	.	.	.	.	.
1.G\	ſe-	.	1.G\	ſe-	ve-	1.B\	-cu(m)	-la-	1r	.	.	.	.	.
.	.	.	.	.	.	.	.	.	.	.	.	2b\	-cu(m)	-la-
.	.	.	.	.	.	.	.	.	(<1.g\	ſe	ve-	1.ee\	ſe-	.
2E\	-cum	.	2E\	-cu(m)	-la-	2G/	.	.	.	.	.	.	.	.
=60	=60	=60	=60	=60	=60	=60	=60	=60	=60	=60	=60	=60	=60	=60
1.A\	ſe-	.	1.A\	ſe-	-men	2c\	ſe-	-men	.	.	.	.	.	.
.	.	.	.	.	.	2B\	.	.	2e\)	.	.	2dd\	.	.
.	.	.	.	.	.	2A\	.	.	1.a\	-cu(m)	-la-	2cc\	.	.
2G\	.	.	2G\	.	.	2B\	.	.	.	.	.	2b\	.	.
2F\	.	.	2F\	.	.	2c\	.	.	.	.	.	2a\	.	.
!	!	!	!LO:TX:a:t=P:problem:custos D	!	!	!	!	!	!	!	!	!	!	!
2E\	.	.	2E\	.	.	4d\	.	.	2g\	ſe-	-men	4b\	.	.
.	.	.	.	.	.	4e\	.	.	.	.	.	4cc\	.	.
!	!	!	!LO:LB:g=original	!	!	!	!	!	!	!	!	!	!	!
=61-	=61	=61	=61	=61	=61	=61	=61	=61	=61	=61	=61	=61	=61	=61
1D\	.	.	1D\	.	ve-	1f\	.	ve-	2f\	.	.	1dd\	.	.
.	.	.	.	.	.	.	.	.	2e\	.	.	.	.	.
1D\	-cum	.	1D\	-cu(m)	-la-	1f\	-cu(m)	-la-	2d\	.	.	1dd\	-cu(m)	.
.	.	.	.	.	.	.	.	.	2d\	-cu(m)	.	.	.	.
1E\	par-	.	1E\	Par-	-men	1e\	Par-	-men	1r	.	.	1cc\	Par-	-men
!	!	!	!	!	!	!	!	!	!	!	!	!LO:LB:g=original	!	!
=62	=62	=62	=62	=62	=62	=62	=62	=62	=62	=62	=62	=62	=62	=62
1F\	-ti-	.	1F\	-ti-	li-	0d\	-ti-	li-	1a\	Par-	li-	0cc\	-ti-	li-
1G\	-ci-	.	1.G\	-ci-	.	.	.	.	1.g\	-ti-	-te-	.	.	.
1GG/	.	.	.	.	.	1d\	-ci-	-te-	.	.	.	1b\	-ci-	-te-
.	.	.	2G\	.	-te-	.	.	.	2f\	-ci-	-rae	.	.	.
=63-	=63	=63	=63	=63	=63	=63-	=63	=63	=63	=63	=63	=63-	=63	=63
0C/,<	-pem	.	0C/	-pem	-rae	0c\	-pem	-rae	1.e\	-pem	vir-	0cc\	-pem	-rae
.	.	.	.	.	.	.	.	.	2e\	pa-	.	.	.	.
1C/	pa-	.	1C/	pa-	vir-	1e\	pa-	vir-	1g\	.	.	1g\	pa-	vir-
=64	=64	=64	=64	=64	=64	=64	=64	=64	=64	=64	=64	=64	=64	=64
1.c\	.	.	1.c\	-tris	-tu-	1.e\	-tris	-tu-	2g\	tris	-tu-	1.g\	-tris	-tu-
.	.	.	.	.	.	.	.	.	2f\	.	.	.	.	.
.	.	.	.	.	.	.	.	.	1.e\	.	.	.	.	.
2B\	.	.	2B\	.	.	2d\	.	.	.	.	.	4a\	.	.
.	.	.	.	.	.	.	.	.	.	.	.	4b\	.	.
1A\	-tris	.	1A\	.	.	1c\	.	.	.	.	.	2cc\	im-	.
.	.	.	.	.	.	.	.	.	2f\	im-	.	2dd\	.	.
!	!	!	!	!	!	!LO:LB:g=original	!	!	!	!	!	!	!	!
=65	=65	=65	=65	=65	=65	=65	=65	=65	=65	=65	=65	=65	=65	=65
1E\	im-	.	1E\	im-	-te	1c\	im-	-te	2g\	.	-te	1ee\	.	-te
.	.	.	.	.	.	.	.	.	2g\	.	.	.	.	.
1.G\	-pe-	.	1.G\	-pe-	nun-	1.c\	-pe-	nun-	1.g\	-pe-	nun-	1.dd\	pe-	nun-
!LO:TX:a:t=P:problem:custos C	!	!	!	!	!	!	!	!	!	!	!	!	!	!
2GG/	-ri-	.	2G\	-ri-	-ti-	2B\	-ri-	-ti-	2f\	-ri-	-ti-	2dd\	-ri-	-tij
!LO:PB:g=original	!	!	!	!	!	!	!	!	!	!	!	!	!	!
=66	=66	=66	=66	=66	=66	=66	=66	=66	=66	=66	=66	=66	=66	=66
0C/,<	-i	.	0C/	-j	-j	0c\	-j	-j	0e\	-j	-j	0cc\	-j	-j
*	*ij	*	*	*ij	*ij	*	*	*	*	*	*	*	*ij	*ij
1C/	Pa-	.	1C/	pa-	vir-	1c\	pa-	vir-	1e\	pa-	vir-	1cc\	pa-	vir-
!	!	!	!	!	!	!	!	!	!LO:LB:g=original	!	!	!	!	!
=67	=67	=67	=67	=67	=67	=67-	=67	=67	=67	=67	=67	=67	=67	=67
1.AA/	-tris	.	1.AA/	-tris	-tu-	0.c\	-tris	-tu-	1.e\	-tris	-tu-	1.cc\	-tris	-tu-
2BB/	.	.	2BB/	.	.	.	.	.	2d\	.	.	4b\	.	.
.	.	.	.	.	.	.	.	.	.	.	.	4a\	.	.
1C/	.	.	1C/	.	.	.	.	.	2e\	.	.	2g\	.	.
.	.	.	.	.	.	.	.	.	2f\	.	.	2a\	.	.
=68	=68	=68	=68	=68	=68	=68	=68	=68	=68	=68	=68	=68	=68	=68
1G\	im-	.	1G\	im-	-te	1d\	im-	-te	1g\	im-	-te	1b\	im-	-te
1.D\	-pe-	.	1.D\	-pe-	nun-	1.d\	-pe-	nun-	1.g\	-pe-	nun-	1.a\	-pe-	nun-
!	!	!	!	!	!	!	!	!	!LO:TX:t=P:problem:# above	!	!	!	!	!
2D/	-ri-	.	2D/	-ri-	-ti-	2c\	-ri-	-ti-	2f#X\	-ri-	-ti-	2a\	-ri-	-ti-
=69-	=69	=69	=69	=69	=69	=69-	=69	=69	=69	=69	=69	=69-	=69	=69
0.GG/;	-j	.	0.GG/;;	-j	-j	0.B\;<	-j	-j	0.g\;	-j	-j	0.b\;	-j	-j
*	*Xij	*	*	*Xij	*Xij	*	*	*	*	*	*	*	*Xij	*Xij
=70||	=70||	=70||	=70||	=70||	=70||	=70||	=70||	=70||	=70||	=70||	=70||	=70||	=70||	=70||
*M3/2	*	*	*	*	*	*	*	*	*	*	*	*	*	*
1.G\	4.Ac-	.	1.G\	Ac-	Vir-	2d\	Ac-	Vir-	0.G/	Ac-	Vir-	1.b\	Ac-	Vir-
.	.	.	.	.	.	2c\	.	.	.	.	.	.	.	.
.	.	.	.	.	.	1.B\	.	.	.	.	.	.	.	.
2F\	.	.	2F\	.	.	.	.	.	.	.	.	2a\	.	.
1E\	.	.	1E\	.	.	.	.	.	.	.	.	2b\	.	.
.	.	.	.	.	.	4A\	.	.	.	.	.	2cc\	.	.
.	.	.	.	.	.	4G\	.	.	.	.	.	.	.	.
=71	=71	=71	=71	=71	=71	=71	=71	=71	=71	=71	=71	=71	=71	=71
0D\	-ce-	.	0D\	-ce-	.	0A\	-ce-	-go	0d\	-ce-	-go	1dd\	-ce-	.
.	.	.	.	.	.	.	.	.	.	.	.	1a\	-de	-go
!	!	!	!	!	!	!	!	!	!	!	!	!LO:TX:a:t=P:problem:custos	!	!
1BB/	-de	.	1BB/	-de	-go	1B\	-de	ſuſ-	1d\	-de	ſuſ-	1dd\	ac	vir
!	!	!	!LO:PB:g=original	!	!	!	!	!	!	!	!	!LO:PB:g=original	!	!
=72	=72	=72	=72	=72	=72	=72-	=72	=72	=72	=72	=72	=72	=72	=72
1.C/	nun-	.	(1.C/	nun-	ſu-	0G/	nun-	-ci-	0e\	nun-	-ci-	2cc\	(nun)-	(su)-
.	.	.	.	.	.	.	.	.	.	.	.	2g\	.	.
.	.	.	.	.	.	.	.	.	.	.	.	1.cc\	-ti-	.
2BB/	.	.	2BB/)	.	.	.	.	.	.	.	.	.	.	.
!LO:TX:a:t=P:problem:custos GG	!	!	!	!	!	!LO:TX:t=P:problem:# above	!	!	!	!	!	!	!	!
1AA/	-ti-	.	2.AA/	-ti-	-ſci-	1F#X/	-ti-	-pi-	1c\	-ti-	-pi-	.	.	.
.	.	.	.	.	.	.	.	.	.	.	.	2cc\	-(us)	-ſci-
.	.	.	4AA/	-a	-pi-	.	.	.	.	.	.	.	.	.
!LO:LB:g=original	!	!	!	!	!	!	!	!	!	!	!	!	!	!
=73	=73	=73	=73	=73	=73	=73	=73	=73	=73	=73	=73	=73	=73	=73
0GG/	a	.	0GG/	.	-as	0G/	-(us)	-a	0d\	-(us)	-a	2b\	dic	-pi-
.	.	.	.	.	.	.	.	.	.	.	.	2g\	.	-as
.	.	.	.	.	.	.	.	.	.	.	.	2g\	a-	De-
.	.	.	.	.	.	.	.	.	.	.	.	2a\	-ve	-i
1E\	dic	.	1E\	dic	De-	1G/	dic	De-	1e\	dic	De-	(>1.b\	co-	de-
=74	=74	=74	=74	=74	=74	=74	=74	=74	=74	=74	=74	=74	=74	=74
2E\	a-	.	2E\	a-	-i	2G/	a-	-i	0g\	a-	-i	.	.	.
2F\	.	.	2F\	.	.	2A/	.	.	.	.	.	2a\)	.	.
2G\	.	.	2G\	.	.	2B\	.	.	.	.	.	2g/	.	-po-
2A\	.	.	2A\	.	.	2c\	.	.	.	.	.	4a\	.	.
.	.	.	.	.	.	.	.	.	.	.	.	4g\	.	.
1B\	.	.	1B\	.	de-	2d\	.	.	1d\	-ve	de-	1f#X/	.	.
.	.	.	.	.	.	2d\	-ve	de-	.	.	.	.	.	.
!	!	!	!	!	!	!LO:LB:g=original	!	!	!	!	!	!	!	!
=75	=75	=75	=75	=75	=75	=75	=75	=75	=75-	=75	=75	=75	=75	=75
1G\	-ve	.	1G\	-ve	-po-	0d\	co-	-po-	0e\	co-	-po-	1b\	.	.
1.A\	co-	.	1.A\	co-	-ſi	.	.	.	.	.	.	1.a\	.	.
!	!	!	!	!	!	!LO:TX:t=P:problem:# above	!	!	!	!	!	!	!	!
.	.	.	.	.	.	1c#X\	-mi-	-ſi-	1e\	-mi-	-ſi-	.	.	.
2AA/	-mi-	.	2A\	-mi-	tu(m)	.	.	.	.	.	.	2a\	-mi-	ſi-
=76	=76	=76	=76	=76	=76	=76-	=76	=76	=76	=76	=76	=76	=76	=76
1.D\	-nùs,	.	1.D\	-n(us)	in	0.d\	-n(us)	-tu(m)	0.d\	-n(us)	-tu(m)	2a\	-n(us)	-tum
.	.	.	.	.	.	.	.	.	.	.	.	2a\	dic	in
.	.	.	.	.	.	.	.	.	.	.	.	2f#X/	ple-	quo
2D/	dic	.	2D/	dic	quo	.	.	.	.	.	.	2a\	-na	per-
2BB/	ple-	.	2BB/	ple-	per-	.	.	.	.	.	.	2b\	gra-	-fi-
2D/	.	.	2D/	-na	.	.	.	.	.	.	.	4a\	.	.
.	.	.	.	.	.	.	.	.	.	.	.	4b\	.	.
=77	=77	=77	=77	=77	=77	=77	=77	=77	=77	=77	=77	=77	=77	=77
1.C/	-na	.	1.C/	gra-	-fi-	2r	.	.	0e\	dic	in	0cc\	-ti-	-ci-
.	.	.	.	.	.	2G/	dic	in	.	.	.	.	.	.
.	.	.	.	.	.	2E/	ple-	quo	.	.	.	.	.	.
2BB/	gra-	.	2BB/	.	.	2G/	-na	per-	.	.	.	.	.	.
!	!	!	!	!	!	!	!	!	!LO:TX:t=P:problem:# above	!	!	!	!	!
2AA/	.	.	2AA/	.	.	2.A/	gra-	-fi-	1f#X\	ple-	quo	1cc\	-a	-as
2BB/	-ti-	.	2BB/	-ti-	-ci-	.	.	.	.	.	.	.	.	.
.	.	.	.	.	.	4A/	.	.	.	.	.	.	.	.
=78	=78	=78	=78	=78	=78	=78	=78	=78	=78-	=78	=78	=78	=78	=78
1.GG/,<	-a	.	1.GG/	-a	-as	1.B\	-ti-	-ci-	0.g\	-na	per-	2b\	dic	in
.	.	.	.	.	.	.	.	.	.	.	.	2dd\	ple-	quo
.	.	.	.	.	.	.	.	.	.	.	.	2b\	-na	per-
*	*	*	*	*ij	*ij	*	*	*	*	*	*	*	*	*
2G\	dic	.	2G\	dic	in	2B\	-a	-as	.	.	.	2dd\	gra-	-fi-
!	!	!	!	!	!	!	!	!	!	!	!	!LO:TX:t=P:problem:# above	!	!
*	*	*	*	*	*	*	*ij	*ij	*	*	*	*	*	*
2E\	ple-	.	2E\	ple-	quo	2G/	dic	in	.	.	.	2cc#X\	.	.
2G\	-na	.	2G\	-na	per-	2B\	ple-	quo	.	.	.	4b\	.	.
.	.	.	.	.	.	.	.	.	.	.	.	4cc#\	.	.
=79	=79	=79	=79	=79	=79	=79	=79	=79	=79	=79	=79	=79	=79	=79
!	!	!	!	!	!	!	!	!	!LO:TX:t=P:problem:# below	!	!	!	!	!
2D/	.	.	2D/	gra-	-fi-	1.A\	-na	per-	1f#X\	gra-	-fi-	0dd\	.	.
2GG/	.	.	2GG/	.	.	.	.	.	.	.	.	.	.	.
1.AA/	gra-	.	1.AA/	.	.	.	.	.	1.e\	.	.	.	.	.
.	.	.	.	.	.	4G/	gra-	-fi-	.	.	.	.	.	.
.	.	.	.	.	.	4F/	.	.	.	.	.	.	.	.
!	!	!	!	!	!	!	!	!	!	!	!	!LO:TX:t=P:problem:# above	!	!
.	.	.	.	.	.	2G/	.	.	.	.	.	1cc#X\	-ti-	-ci-
2AA/	-ti-	.	2AA/	-ti-	-ci-	2G/	-ti-	-ci-	2e\	-ti-	-ci-	.	.	.
!	!	!	!	!	!	!	!	!	!LO:PB:g=original	!	!	!LO:LB:g=original	!	!
=80-	=80	=80	=80	=80	=80	=80	=80	=80	=80	=80	=80	=80	=80	=80
0.D\,<	-a	.	0.D\	-a	-as	1F/	-a	-as	0.d\	-a	-as	2dd\	-a	-as
*	*	*	*	*Xij	*Xij	*	*Xij	*Xij	*	*	*	*	*	*
.	.	.	.	.	.	.	.	.	.	.	.	2b\	dic	cas-
.	.	.	.	.	.	1r	.	.	.	.	.	1dd\	te-	-tu(m)
.	.	.	.	.	.	1r	.	.	.	.	.	1ee\	-cu(m)	pro-
=81	=81	=81	=81	=81	=81	=81	=81	=81	=81	=81	=81	=81	=81	=81
1BB/	dic	.	1BB/	dic	caſ-	1r	.	.	1r	.	.	0dd\	Do-	-po-
1D\	te-	.	1D\	te-	-tu(m)	1r	.	.	1r	.	.	.	.	.
1E\	-c(um)	.	1E\	-c(um)	pro-	1G/	dic	caſ-	1B/	dic	caſ-	0cc\	.	.
!LO:LB:g=original	!	!	!LO:LB:g=original	!	!	!	!	!	!	!	!	!	!	!
=82	=82	=82	=82	=82	=82	=82	=82	=82	=82	=82	=82	=82-	=82	=82
0D\	Do-	.	0D\	Do-	-po-	1A\	te-	-tu(m)	0d\	te-	-tu(m)	.	.	.
.	.	.	.	.	.	1B\	-cu(m)	caſ-	.	.	.	1b\	.	.
*	*	*	*	*	*	*	*ij	*	*	*	*	*	*	*
1C/	.	.	1C/	.	.	1c\	dic	-tu(m)	1e\	-cu(m)	pro-	1a\	.	.
=83	=83	=83	=83	=83	=83	=83	=83	=83	=83-	=83	=83	=83	=83	=83
1.BB/	.	.	1.BB/	.	.	0G/	te-	pro-	0d\	Do-	-po-	0b\	.	.
2BB/	-mi-	.	2BB/	-mi-	-ſi-	.	.	.	.	.	.	.	.	.
!	!	!	!	!	!	!LO:TX:t=P:problem:# above	!	!	!	!	!	!	!	!
1AA/	-nus	.	1AA/	-n(us)	-t(um)-	1F#X/	-cu(m)	-po-	1c\	.	.	1cc\	.	.
*	*	*	*	*	*	*	*Xij	*	*	*	*	*	*	*
=84	=84	=84	=84	=84	=84	=84	=84	=84	=84	=84	=84	=84	=84	=84
1GG/	Do-	.	1GG/	Do-	pro-	0G/	Do-	-ſi-	1B/	.	.	1dd\	.	.
1C/	.	.	1C/	.	-po	.	.	.	1.A/	.	.	1cc\	.	.
!	!	!	!	!	!	!LO:TX:t=P:problem:# above	!	!	!	!	!	!	!	!
2D/	-mi-	.	2D/	-mi-	-ſi-	1F#X/	-mi-	.	.	.	.	1a\	-mi-	-ſi-
2D/	.	.	2D/	.	.	.	.	.	2A/	-mi-	-ſi-	.	.	.
=85	=85	=85	=85	=85	=85	=85-	=85	=85	=85	=85	=85	=85	=85	=85
1GG/,<	-n(us)	.	1GG/	-n(us)	-t(um)	0G/	-n(us)	-t(um)	0G/,<	-n(us)	-t(um)	1b\	-n(us)	-t(um)
2G\	et	.	2G\	et	et	.	.	.	.	.	.	2b\	et	et
2F\	.	.	2F\	.	.	.	.	.	.	.	.	2a\	.	.
2E\	.	.	2E\	.	.	1G/	et	et	1B/	et	et	2g\	.	.
!	!	!	!	!	!	!	!	!	!	!	!	!LO:TX:t=P:problem:# above	!	!
4D/L	.	.	4D\	.	.	.	.	.	.	.	.	4f#X/	.	.
4C/J	.	.	4C\	.	.	.	.	.	.	.	.	4e/	.	.
=86	=86	=86	=86	=86	=86	=86	=86	=86	=86	=86	=86	=86	=86	=86
0BB/	.	.	0BB/	.	vo-	0.B\	dic	vo-	0.d\	dic	vo-	0f/	.	.
1GG/	dic	.	1GG/	dic	-tu(m)	.	.	.	.	.	.	1g\	dic	vo-
=87	=87	=87	=87	=87	=87	=87-	=87	=87	=87-	=87	=87	=87	=87	=87
2AA/	ne	.	2AA/	ne	te-	(0A\	ne	-tu(m)	0.c\	ne	-tu(m)	1.e/	ne	-tu(m)
2BB/	.	.	2BB/	.	.	.	.	.	.	.	.	.	.	.
2C/	.	.	2C/	.	.	.	.	.	.	.	.	.	.	.
2D/	.	.	2D/	.	.	.	.	.	.	.	.	2f/	.	te-
2E\	.	.	2E\	.	.	1G/)	.	.	.	.	.	2g/	.	.
2F\	.	.	2F\	.	.	.	.	.	.	.	.	2a/	.	.
!	!	!	!	!	!	!LO:LB:g=original	!	!	!	!	!	!	!	!
=88	=88	=88	=88	=88	=88	=88-	=88	=88	=88	=88	=88	=88	=88	=88
0G\	.	.	0G\	.	.	0G/	ti-	te-	0.B/	.	.	2b\	.	.
.	.	.	.	.	.	.	.	.	.	.	.	2a\	.	.
.	.	.	.	.	.	.	.	.	.	.	.	2b\	.	.
.	.	.	.	.	.	.	.	.	.	.	.	2cc\	.	.
1BB/	.	.	1BB/	.	.	1G/	-me-	-ne-	.	.	.	1dd\	.	.
=89	=89	=89	=89	=89	=89	=89-	=89	=89	=89-	=89	=89	=89	=89	=89
1C/	.	.	1C/	.	.	0.G/	-as	-as	0A/	.	.	1ee\	.	.
1.D\	ti-	.	1.D\	ti-	-ne-	.	.	.	.	.	.	1.a\	ti-	-ne-
.	.	.	.	.	.	.	.	.	1A/	.	.	.	.	.
2D\	-me-	.	2D/	-me-	-as	.	.	.	.	.	.	2a\	-me-	.
=90-	=90	=90	=90	=90	=90	=90	=90	=90	=90	=90	=90	=90	=90	=90
1GG/,<	-as	.	1GG/	-as	.	1G/	et	et	0G/	ti-	te-	1b\	-as	-as
!	!	!	!	!	!	!	!	!	!	!	!	!LO:LB:g=original	!	!
(2G\	et	.	2G\	ne	ne	1G/	dic	vo-	.	.	.	2b\	ne	te-
2F\)	.	.	2F\	.	.	.	.	.	.	.	.	2a\	.	.
(2E\	dic	.	2E\	.	.	1F#X/	ne	-tu(m)	1G/	-me-	-ne-	2g\	.	.
2D\)	.	.	2D\	.	.	.	.	.	.	.	.	4a\	.	.
.	.	.	.	.	.	.	.	.	.	.	.	4b\	.	.
=91	=91	=91	=91	=91	=91	=91	=91	=91	=91-	=91	=91	=91	=91	=91
1C/	ne	.	1C/	ti-	te-	0G/	ti-	te-	0.G/;;	-as	-as	1cc\	.	.
1BB/	ti-	.	1BB/	.	.	.	.	.	.	.	.	1dd\	.	.
2C/	-me-	.	2.C/	-me-	-ne-	1G/	-me-	-ne-	.	.	.	2.cc\	ti-	.
2C/	.	.	.	.	.	.	.	.	.	.	.	.	.	.
.	.	.	4C/	.	.	.	.	.	.	.	.	4cc\	-me-	-ne-
=92	=92	=92	=92-	=92	=92	=92-	=92	=92	=92	=92	=92	=92	=92	=92
0.GG/;	-as	.	0.GG/;;	-aſ	-aſ	0.G/	-as	-aſ	0.G/;;	.	.	0.b\;;	-as	-as
!LO:LB:g=original	!	!	!LO:LB:g=original	!	!	!	!	!	!	!	!	!	!	!
=93||	=93||	=93||	=93||	=93||	=93||	=93||	=93||	=93||	=93||	=93||	=93||	=93||	=93||	=93||
1G\	5.Au-	6.Qui	1G\	Au-	Qui	1B\	Au-	Qui	1g\	Au-	Qui	1dd\	Au-	Qui
!	!	!	!	!	!	!	!	!	!LO:TX:t=P:problem:# above	!	!	!	!	!
1D\	-dit	no-	1D\	-dit	no-	1A\	-dit	no-	1f#X\	-dit	no-	1dd\	-dit	no-
1G\	et	-bis	1G\	et	-bis	1B\	et	-bis	1g\	et	-bis	1dd\	et	-bis
!	!	!	!	!	!	!	!	!	!LO:LB:g=original	!	!	!	!	!
=94	=94	=94	=94	=94	=94	=94	=94	=94	=94	=94	=94	=94	=94	=94
1.C/	ſuſ-	tri-	1.C/	ſuſ-	tri-	1.c\	ſuſ-	tri-	1.e\	ſuſ-	tri-	1.ee\	ſuſ-	tri-
2C/	-ci-	-bu-	2C/	-ci-	-bu-	2B\	-ci-	-bu-	2e\	-ci-	-bu-	2ee\	-ci-	-bu-
!	!	!	!	!	!	!	!	!	!LO:TX:t=P:problem:# above	!	!	!	!	!
1D\	-pit	-at	1D\	-pit	-at	1A\	-pit	-at	1f#X\	-pit	-at	1dd\	-pit	-at
=95	=95	=95	=95	=95	=95	=95	=95	=95	=95	=95	=95	=95	=95	=95
1BB/	pu-	pec-	1BB/	pu-	pec-	1B\	pu-	pec-	1g\	pu-	pec-	1cc\	pu-	pec-
2C/	-el-	-ca-	2C/	-el-	-ca-	1.G/	-el-	-ca-	(2e\	-el-	-ca-	2cc\	-el-	-ca-
2BB/	.	.	2BB/	.	.	.	.	.	2f\)	.	.	2dd\	.	.
2C/	.	.	2C/	.	.	.	.	.	2g\	-la	-ti	1.ee\	.	.
2D/	.	.	2D/	.	.	2F#X/	.	.	2d\	.	.	.	.	.
=96	=96	=96	=96	=96	=96	=96	=96	=96	=96	=96	=96	=96	=96	=96
1.E\	.	.	1.E\	.	.	1.G/	.	.	1.g\	pu-	pec-	.	.	.
.	.	.	.	.	.	.	.	.	.	.	.	4dd\	.	.
.	.	.	.	.	.	.	.	.	.	.	.	4cc\	.	.
.	.	.	.	.	.	.	.	.	.	.	.	2b\	.	.
4D/L	.	.	4D\	.	.	2A/	.	.	4f\	.	.	2cc\	.	.
4C/J	.	.	4C/	.	.	.	.	.	4e\	.	.	.	.	.
1BB/	.	.	1BB/	.	.	1B\	.	.	1d\	-el-	-ca-	1dd\	-la	-ti
=97	=97	=97	=97	=97	=97	=97	=97	=97	=97	=97	=97	=97	=97	=97
1C/,	-la	-ti	1C/	-la	-ti	1A\	-la	-ti	1g\,	-la	-ti	0cc\	nun-	ve-
1AA/	nun-	ve-	1AA/	nun-	ve-	1.A\	nun-	ve-	1.g\	nun-	ve-	.	.	.
1D\	-ti-	-ni	2.D/	.	.	.	.	.	.	.	.	1a\	-ti-	-ni-
.	.	.	.	.	.	2A/	-ti-	-ni-	2f#X\	-ti-	-ni-	.	.	.
.	.	.	4D/	-ti	-ni	.	.	.	.	.	.	.	.	.
=98	=98	=98	=98	=98	=98	=98-	=98	=98	=98	=98	=98	=98	=98	=98
0GG/,<	-um	-am	0GG/	-u(m)	-a(m)	0G/	-u(m)	-a(m)	0g\	-u(m)	-a(m)	0b\	-u(m)	-a(m)
1G\	Cre-	re-	1G\	Cre-	re-	1G/	Cre-	re-	1g\	Cre-	re-	1b\	Cre-	re-
!	!	!	!	!	!	!LO:LB:g=original	!	!	!	!	!	!	!	!
=99	=99	=99	=99	=99	=99	=99	=99	=99	=99	=99	=99	=99-	=99	=99
0F#X\	-dit	-a-	0F\	-dit	-a-	0d\	-dit	-a-	0a\	-dit	-a-	0a\	-dit	-a-
1G\	et	-tus	1G\	et	-t(us)	1d\	et	-t(us)	1g\	et	-t(us)	1b\	et	-t(us)
!	!	!	!	!	!	!	!	!	!	!	!	!LO:LB:g=original	!	!
=100	=100	=100	=100-	=100	=100	=100	=100	=100	=100	=100	=100	=100	=100	=100
0C/	con-	de-	0D\	con-	de-	0e\	con-	de-	0g\	con-	de-	0cc\	con-	de-
!	!	!	!	!	!	!	!	!	!LO:TX:t=P:problem:# above	!	!	!	!	!
1AA/	-ci-	-le-	1AA/	-ci-	-le-	1c\	-ci-	-le-	1f#X\	-ci-	-le-	1cc\	-ci-	-le-
=101	=101	=101	=101-	=101	=101	=101	=101	=101	=101	=101	=101	=101-	=101	=101
1GG/	-pit	-at	1GG/	-pit	-at	1d\	-pit	-at	0g\	-pit	-at	0b\	-pit	-at
1G\	et	et	1G\	et	et	(1G/	et	et	.	.	.	.	.	.
!LO:TX:t=P:problem:# above	!	!	!LO:TX:t=P:problem:# above	!	!	!	!	!	!	!	!	!	!	!
2F#X\	pa-	do-	2F#X\	pa-	do-	1A\)	.	do	1a\	et	et	1dd\	et	et
2F#\	-rit	-net	2F#\	-rit	-net	.	.	.	.	.	.	.	.	.
!	!	!	!LO:LB:g=original	!	!	!	!	!	!	!	!	!	!	!
=102	=102	=102	=102-	=102	=102	=102	=102	=102	=102	=102	=102	=102	=102	=102
1.G\	Fi-	Pa-	1.G\	Fi-	Pa-	0B\	pa-	net	1.g\	pa-	do-	1.dd\	pa-	do-
2G\	-li-	-tri-	2G\	-li-	-tri-	.	.	.	2f\	.	.	2dd\	-rit	-net
1C/	-um	-am	1C/	-(um)	-a(m)	1c\	.	.	1e\	-rit	-net	1cc\	et	et
=103	=103	=103	=103	=103	=103	=103	=103	=103	=103	=103	=103	=103	=103	=103
0GG/	et	et	0GG/	et	et	0d\	.	do-	1a\	et	et	0b\	pa-	do-
.	.	.	.	.	.	.	.	.	1g\	pa-	do-	.	.	.
1AA/	pa-	do-	1AA/	pa-	do-	1c\	-rit	.	1e\	-rit	-net	1a\	-rit	-net
=104	=104	=104	=104	=104	=104	=104	=104	=104	=104	=104	=104	=104-	=104	=104
1BB/	-rit	-net	1BB/	-rit	-net	1B\	Fi-	-net	0e\	Fi-	pa-	0g\	Fi-	pa-
1.D\	Fi-	pa-	1.D\	Fi-	pa-	1.A\	li-	pa-	.	.	.	.	.	.
!	!	!	!	!	!	!	!	!	!LO:TX:a:t=P:problem:custos B	!	!	!LO:TX:t=P:problem:# above	!	!
.	.	.	.	.	.	.	.	.	1c\	li-	-tri-	1f#X/	li-	-tri-
2D\	-li-	-tri-	2D/	-li-	-tri-	2A/	-u(m)	-tri	.	.	.	.	.	.
!	!	!	!	!	!	!	!	!	!LO:LB:g=original	!	!	!	!	!
=105	=105	=105	=105	=105	=105	=105	=105	=105	=105	=105	=105	=105	=105	=105
0GG/,	-um	-am	0GG/	-u(m)	-a(m)	0B\	.	a(m)	1B/	-u(m)	-am	0g\	-u(m)	-a(m)
.	.	.	.	.	.	.	.	.	2B/	ſed	in	.	.	.
.	.	.	.	.	.	.	.	.	2c/	.	.	.	.	.
1G\	ſed	in	1G\	ſed	in	1d\	ſed	in	2d/	.	.	1b\	ſed	in
.	.	.	.	.	.	.	.	.	2B/	.	.	.	.	.
=106	=106	=106	=106	=106	=106	=106	=106	=106	=106	=106	=106	=106	=106	=106
2C/	ad-	ar-	2C/	ad-	ar-	0e\	.	.	2e\	ad-	ar-	0cc\	ad-	ar-
2D/	.	.	2D/	.	.	.	.	.	2f\	.	.	.	.	.
2E/	.	.	2E\	.	.	.	.	.	0g\	-mi-	-ce	.	.	.
!	!	!	!LO:TX:t=P:problem:# above	!	!	!	!	!	!	!	!	!	!	!
2F/	.	.	2F#X\	.	.	.	.	.	.	.	.	.	.	.
1G\	.	.	1G\	.	ce	1d\	.	.	.	.	.	1b\	-mi-	-ce
=107	=107	=107	=107	=107	=107	=107	=107	=107	=107	=107	=107	=107-	=107	=107
1G\	-mi-	.	1G\	-mi-	in	0G/	ad-	ar-	2d\	-ra-	Sy-	1.b\	-ra-	Sy-
.	.	.	.	.	.	.	.	.	2d\	-bi-	-de-	.	.	.
1E\	-ra-	.	1E\	-ra-	ar-	.	.	.	1e\	-le	-ru(m)	.	.	.
.	.	.	.	.	.	.	.	.	.	.	.	2b\	-bi-	-de-
1F#X\	.	-ce	1F#X\	.	-ce	1A\	.	.	2d\	ad-	in	1a\	-le	-ru(m)
.	.	.	.	.	.	.	.	.	2c/	.	.	.	.	.
=108	=108	=108	=108	=108	=108	=108	=108	=108	=108	=108	=108	=108	=108	=108
2G\	.	ſi-	2G\	.	.	0B\	-mi-	-ce	2B/	.	.	0g\	ſed	in
2F\	.	.	2F\	.	.	.	.	.	2A/	.	ar-	.	.	.
2E\	.	.	2E\	.	.	.	.	.	2B/	.	.	.	.	.
2D\	.	.	2D/	.	.	.	.	.	4c/	.	.	.	.	.
.	.	.	.	.	.	.	.	.	4d/	.	.	.	.	.
1C/	.	.	2C/	.	Sy-	1c\	.	.	1e\	-mi-	-ce	1a\	.	.
.	.	.	2C/	-bi-	-de-	.	.	.	.	.	.	.	.	.
=109	=109	=109	=109	=109	=109	=109	=109	=109	=109	=109	=109	=109	=109	=109
1.GG/	.	.	1.GG/	-le	-r(um)	1.B\	-ra-	Sy-	1.d\	-ra-	Sy-	0b\	ad-	ar-
2GG/	bi-	-de-	2GG/	ſed	in	2B\	-bi-	-de-	2d\	-bi-	-de-	.	.	.
1AA/	-lem	-rum	1AA/	ad-	ar-	1A\	-le	-r(um)	1c\	-le	-r(um)	1cc\	.	.
!LO:LB:g=original	!	!	!	!	!	!	!	!	!	!	!	!	!	!
=110	=110	=110	=110	=110	=110	=110	=110	=110	=110	=110	=110	=110	=110	=110
*	*	*	*	*	*	*	*	*	*	*ij	*	*	*	*
1BB/	ad	ſi-	1BB/	-mi-	-ce	1G/	mi-	Sy-	1d\	mi-	ar-	1b\	-mi-	-ce
1C/	mi-	.	1C/	-ra-	Sy-	1G/	-ra-	.	2e\	.	-ce	1.a\	-ra-	Sy-
.	.	.	.	.	.	.	.	.	2e\	-ra-	Sy-	.	.	.
!	!	!	!	!	!	!LO:TX:t=P:problem:# above	!	!	!	!	!	!	!	!
2D\	-ra-	-de-	2.D/	-bi-	-de-	1F#X/	-bi-	-de-	2d\	.	-de-	.	.	.
2D\	-bi-	.	.	.	.	.	.	.	2c/	-bi-	.	2a\	-bi-	-de-
.	.	.	4D/	.	.	.	.	.	.	.	.	.	.	.
=111	=111	=111	=111-	=111	=111	=111	=111	=111	=111	=111	=111	=111	=111	=111
0.GG/	-lem	-rum.	0.GG/;<	-le	-r(um)	0.G/;<	-le	-r(um)	0.B/	-le	-r(um)	0.b\	-le	-rum
*	*	*	*	*	*	*	*	*	*	*Xij	*	*	*	*
!	!	!	!LO:LB:g=original	!	!	!LO:LB:g=original	!	!	!	!	!	!	!	!
=112||	=112||	=112||	=112-	=112||	=112||	=112||	=112||	=112||	=112||	=112||	=112||	=112||	=112||	=112||
!LO:N:vis=0.	!	!	!	!	!	!	!	!	!	!	!	!	!	!
00.C/	A-	.	0.C/	a-	.	0G/	a-	.	0.e\	a-	.	0.cc\	a-	.
.	.	.	.	.	.	1G/	-men	.	.	.	.	.	.	.
=113	=113	=113	=113||	=113	=113	=113	=113	=113	=113-	=113	=113	=113-	=113	=113
.	.	.	0.GG/	.	.	0.G/	a-	.	0e\	.	.	0cc\	.	.
.	.	.	.	.	.	.	.	.	2d\	-men	.	2b\	.	.
*	*	*	*	*	*	*	*	*	*	*ij	*	*	*	*
.	.	.	.	.	.	.	.	.	2c\	a-	.	2a\	.	.
=114	=114	=114	=114-	=114	=114	=114-	=114	=114	=114	=114	=114	=114	=114	=114
!	!	!	!	!	!	!LO:TX:a:t=D O R ad D. R Vq M H.	!	!	!	!	!	!	!	!
0.GG/;	-men.	.	0.GG/;;	-men	.	0.G/;	-men.	.	0.d\;;	-men	.	0.b\;;	-men	.
*	*	*	*	*	*	*	*	*	*	*Xij	*	*	*	*
==	==	==	==	==	==	==	==	==	==	==	==	==	==	==
*-	*-	*-	*-	*-	*-	*-	*-	*-	*-	*-	*-	*-	*-	*-
!!!system-decoration: [(s1,s2,s3,s4,s5)]
!!!RDF**kern: > = above
!!!RDF**kern: < = below
!!!EED: Leszek Kubiak
!!!EST: 2021-02-22
!!!ENC: Tomasz Grochalski
!!!END: 2021-02-14
